!!!COM: Prokofiev, Sergey (Sergeyevich)
!!!OTL: Piano Concerto No. 1 in D-flat Major, op. 10
!!!OMV: I: Allegro brioso
!!!example: 567
!!!work: Pro-2
**kern	**dynam	**kern	**dynam	**kern	**dynam	**kern	**dynam	**kern	**dynam	**kern	**kern	**dynam	**kern	**dynam	**kern	**dynam	**kern	**dynam
*part9	*part9	*part8	*part8	*part7	*part7	*part6	*part6	*part5	*part5	*part4	*part4	*part4	*part3	*part3	*part2	*part2	*part1	*part1
*staff10	*	*staff9	*	*staff8	*	*staff7	*	*staff6	*	*staff5	*staff4	*	*staff3	*	*staff2	*	*staff1	*
*I"Contrabass	*	*I"Violoncello	*	*I"Viola	*	*I"Violin II	*	*I"Violin I	*	*I"Piano	*	*	*I"Horn in F III. IV.	*	*I"Horn in F	*	*I"Trumpet in C	*
*I'Cb.	*	*I'Vc.	*	*I'Vla.	*	*I'Vln. II	*	*I'Vln. I	*	*I'Pno.	*	*	*I'Hn.	*	*I'Hn.	*	*I'C Tpt.	*
!!pagebreak:original
*clefF4	*	*clefF4	*	*clefC3	*	*clefG2	*	*clefG2	*	*clefG2	*clefG2	*	*clefF4	*	*clefG2	*	*clefG2	*
*ITrd0c0	*	*	*	*	*	*	*	*	*	*	*	*	*ITrd4c7	*	*ITrd4c7	*	*	*
*k[]	*	*k[]	*	*k[]	*	*k[]	*	*k[]	*	*k[]	*k[]	*	*k[]	*	*k[]	*	*k[]	*
*C:	*	*C:	*	*C:	*	*C:	*	*C:	*	*C:	*C:	*	*C:	*	*C:	*	*C:	*
*M4/4	*	*M4/4	*	*M4/4	*	*M4/4	*	*M4/4	*	*M4/4	*M4/4	*	*M4/4	*	*M4/4	*	*M4/4	*
*MM121	*	*MM121	*	*MM121	*	*MM121	*	*MM121	*	*MM121	*MM121	*	*MM121	*	*MM121	*	*MM121	*
=70	=	=	=	=	=	=	=	=	=	=	=	=	=	=	=	=	=	=
!	!	!LO:TX:t=arco	!	!LO:TX:t=arco	!	!LO:TX:t=arco	!	!LO:TX:t=arco	!	!	!	!	!LO:TX:t=Cor. III. IV.	!	!	!	!	!
1r	.	4C	.	4E	.	4c	.	4e	.	8gL	12bbL	.	4C 4E	p	1r	.	1r	.
.	.	.	.	.	.	.	.	.	.	.	12ddd	.	.	.	.	.	.	.
.	.	.	.	.	.	.	.	.	.	8a	.	.	.	.	.	.	.	.
.	.	.	.	.	.	.	.	.	.	.	12ggJ	.	.	.	.	.	.	.
.	.	4E	.	4G	.	4e	.	4g	.	8f	12bbL	.	4E 4G	.	.	.	.	.
.	.	.	.	.	.	.	.	.	.	.	12ee	.	.	.	.	.	.	.
.	.	.	.	.	.	.	.	.	.	8gJ	.	.	.	.	.	.	.	.
.	.	.	.	.	.	.	.	.	.	.	12ggJ	.	.	.	.	.	.	.
.	.	4G	.	4B	.	4g	.	4b	.	8eL	12ccL	.	4G 4B	.	.	.	.	.
.	.	.	.	.	.	.	.	.	.	.	12ee	.	.	.	.	.	.	.
.	.	.	.	.	.	.	.	.	.	8f	.	.	.	.	.	.	.	.
.	.	.	.	.	.	.	.	.	.	.	12aJ	.	.	.	.	.	.	.
.	.	4B	.	4d	.	4b	.	4dd	.	8d	12ccL	.	4B 4d	.	.	.	.	.
.	.	.	.	.	.	.	.	.	.	.	12a	.	.	.	.	.	.	.
.	.	.	.	.	.	.	.	.	.	8eJ	.	.	.	.	.	.	.	.
.	.	.	.	.	.	.	.	.	.	.	12bJ	.	.	.	.	.	.	.
=71	=71	=71	=71	=71	=71	=71	=71	=71	=71	=71	=71	=71	=71	=71	=71	=71	=71	=71
1r	.	8C'^L	pp	8E'^L	pp	8e'^L	pp	1r	.	6c	(>12eL	<	1r	.	1r	.	1r	.
.	.	.	.	.	.	.	.	.	.	.	12a	.	.	.	.	.	.	.
.	.	8r	.	8r	.	8r	.	.	.	.	.	.	.	.	.	.	.	.
.	.	.	.	.	.	.	.	.	.	12B	12gJ	.	.	.	.	.	.	.
.	.	8BB'	.	8B'	.	8d'	.	.	.	6d	12bL	.	.	.	.	.	.	.
.	.	.	.	.	.	.	.	.	.	.	12a	.	.	.	.	.	.	.
.	.	8AA'J	.	8A'J	.	8c'J	.	.	.	.	.	.	.	.	.	.	.	.
.	.	.	.	.	.	.	.	.	.	12A	12ccJ	.	.	.	.	.	.	.
.	.	8GG'	.	8G'	.	8B'	.	.	.	12GL	12bL	.	.	.	.	.	.	.
.	.	.	.	.	.	.	.	.	.	12B	12dd	.	.	.	.	.	.	.
.	.	8r	.	8r	.	8r	.	.	.	.	.	.	.	.	.	.	.	.
.	.	.	.	.	.	.	.	.	.	12dJ	12bJ)	[	.	.	.	.	.	.
.	.	8C'^L	.	8E'^L	.	8e'^L	.	.	.	6c	(>12eL	.	.	.	.	.	.	.
.	.	.	.	.	.	.	.	.	.	.	12a	<	.	.	.	.	.	.
.	.	8r	.	8r	.	8r	.	.	.	.	.	.	.	.	.	.	.	.
.	.	.	.	.	.	.	.	.	.	12B	12gJ	.	.	.	.	.	.	.
=72	=72	=72	=72	=72	=72	=72	=72	=72	=72	=72	=72	=72	=72	=72	=72	=72	=72	=72
1r	.	8BB'	.	8B'	.	8d'	.	1r	.	6d	12bL	.	1r	.	1r	.	1r	.
.	.	.	.	.	.	.	.	.	.	.	12a	.	.	.	.	.	.	.
.	.	8AA'J	.	8A'J	.	8c'J	.	.	.	.	.	.	.	.	.	.	.	.
.	.	.	.	.	.	.	.	.	.	12A	12ccJ	.	.	.	.	.	.	.
.	.	8GG'	.	8G'	.	8B'	.	.	.	12GL	12bL	.	.	.	.	.	.	.
.	.	.	.	.	.	.	.	.	.	12B	12dd	.	.	.	.	.	.	.
.	.	8r	.	8r	.	8r	.	.	.	.	.	.	.	.	.	.	.	.
.	.	.	.	.	.	.	.	.	.	12dJ	12bJ)	[	.	.	.	.	.	.
.	.	8C'^L	.	8E'^L	.	8e'^L	.	.	.	6c	(>12eL	.	.	.	.	.	.	.
.	.	.	.	.	.	.	.	.	.	.	12a	<	.	.	.	.	.	.
.	.	8r	.	8r	.	8r	.	.	.	.	.	.	.	.	.	.	.	.
.	.	.	.	.	.	.	.	.	.	12B	12gJ	.	.	.	.	.	.	.
.	.	8BB'	.	8B'	.	8d'	.	.	.	12cL	12bL	.	.	.	.	.	.	.
.	.	.	.	.	.	.	.	.	.	12d	12a	.	.	.	.	.	.	.
.	.	8AA'J	.	8A'J	.	8c'J	.	.	.	.	.	.	.	.	.	.	.	.
.	.	.	.	.	.	.	.	.	.	12eJ	12ccJ	.	.	.	.	.	.	.
=73	=73	=73	=73	=73	=73	=73	=73	=73	=73	=73	=73	=73	=73	=73	=73	=73	=73	=73
1r	.	8FF'	.	8F'	.	8A'	.	1r	.	4f	12ffL	.	1r	.	1r	.	1r	.
.	.	.	.	.	.	.	.	.	.	.	12a	[	.	.	.	.	.	.
.	.	8r	.	8r	.	8r	.	.	.	.	.	.	.	.	.	.	.	.
.	.	.	.	.	.	.	.	.	.	.	12ffJ)	.	.	.	.	.	.	.
.	.	8C'^L	.	8E'^L	.	8e'^L	.	.	.	6c	(>12eL	.	.	.	.	.	.	.
.	.	.	.	.	.	.	.	.	.	.	12b	<	.	.	.	.	.	.
.	.	8r	.	8r	.	8r	.	.	.	.	.	.	.	.	.	.	.	.
.	.	.	.	.	.	.	.	.	.	12c	12aJ	.	.	.	.	.	.	.
.	.	8BB'	.	8B'	.	8d'	.	.	.	12dL	12ccL	.	.	.	.	.	.	.
.	.	.	.	.	.	.	.	.	.	12e	12b	.	.	.	.	.	.	.
.	.	8AA'J	.	8A'J	.	8c'J	.	.	.	.	.	.	.	.	.	.	.	.
.	.	.	.	.	.	.	.	.	.	12fJ	12ddJ	.	.	.	.	.	.	.
.	.	8EE'	.	8E'	.	8G'	.	.	.	4g	12ggL	.	.	.	.	.	.	.
.	.	.	.	.	.	.	.	.	.	.	12b	[	.	.	.	.	.	.
.	.	8r	.	8r	.	8r	.	.	.	.	.	.	.	.	.	.	.	.
.	.	.	.	.	.	.	.	.	.	.	12ggJ)	.	.	.	.	.	.	.
=74	=74	=74	=74	=74	=74	=74	=74	=74	=74	=74	=74	=74	=74	=74	=74	=74	=74	=74
!!linebreak:original
!LO:TX:t=pizz.	!	!LO:TX:t=pizz.	!	!	!	!	!	!	!	!	!	!	!	!	!	!	!	!
4BB	p	4BB	p	8r	.	8r	.	8r	.	12BL	12aa^L	.	4r	.	4r	.	1r	.
.	.	.	.	.	.	.	.	.	.	12c	(>12dd	.	.	.	.	.	.	.
.	.	.	.	8dL	p	8fL	p	8aL	p	.	.	.	.	.	.	.	.	.
.	.	.	.	.	.	.	.	.	.	12c#XJ	12eeJ	.	.	.	.	.	.	.
4r	.	4r	.	8AJ	.	8dJ	.	8dJ	.	12dL	12ffL	<	4A	p	4f 4a	p	.	.
.	.	.	.	.	.	.	.	.	.	12d#X	12cc	.	.	.	.	.	.	.
.	.	.	.	8r	.	8r	.	8r	.	.	.	.	.	.	.	.	.	.
.	.	.	.	.	.	.	.	.	.	12eJ	12ddJ	.	.	.	.	.	.	.
!LO:TX:i:t=poco cresc.	!	!LO:TX:i:t=poco cresc.	!	!LO:TX:i:t=poco cresc.	!	!LO:TX:i:t=poco cresc.	!	!LO:TX:i:t=poco cresc.	!	!	!	!	!	!	!	!	!	!
4E	.	4E	.	8r	.	8r	.	8r	.	12fL	12aaL)	.	4r	.	4r	.	.	.
.	.	.	.	.	.	.	.	.	.	12f#X	(>12ccc	.	.	.	.	.	.	.
.	.	.	.	8dL	.	8fL	.	8aL	.	.	.	.	.	.	.	.	.	.
.	.	.	.	.	.	.	.	.	.	12gJ	12dddJ	.	.	.	.	.	.	.
!	!	!	!	!	!	!	!	!	!	!	!	!	!LO:TX:i:t=cresc.	!	!LO:TX:i:t=cresc.	!	!	!
4r	.	4r	.	8AJ	.	8dJ	.	8dJ	.	12g#XL	12eeeL	.	4A	.	4f 4a	.	.	.
.	.	.	.	.	.	.	.	.	.	12a	12fff	.	.	.	.	.	.	.
.	.	.	.	8r	.	8r	.	8r	.	.	.	.	.	.	.	.	.	.
.	.	.	.	.	.	.	.	.	.	12a#XJ	12gggJ	[	.	.	.	.	.	.
=75	=75	=75	=75	=75	=75	=75	=75	=75	=75	=75	=75	=75	=75	=75	=75	=75	=75	=75
*	*	*	*	*	*	*	*	*	*	*8va	*	*	*	*	*	*	*	*
4BB	.	4BB	.	8r	.	8r	.	8r	.	12bL	12aaaL	.	4r	.	4r	.	1r	.
.	.	.	.	.	.	.	.	.	.	12cc	12ddd	.	.	.	.	.	.	.
.	.	.	.	8dL	.	8fL	.	8ddL	.	.	.	.	.	.	.	.	.	.
.	.	.	.	.	.	.	.	.	.	12cc#XJ	12eeeJ	.	.	.	.	.	.	.
4r	.	4r	.	8AJ	.	8dJ	.	8fJ	.	12ddL	12fffL	<	4A	.	4f 4dd	.	.	.
.	.	.	.	.	.	.	.	.	.	12dd#X	12ccc	.	.	.	.	.	.	.
.	.	.	.	8r	.	8r	.	8r	.	.	.	.	.	.	.	.	.	.
.	.	.	.	.	.	.	.	.	.	12eeJ	12dddJ)	.	.	.	.	.	.	.
4E	.	4E	.	8r	.	8r	.	8r	.	12ffL	12aaaL	.	4r	.	4r	.	.	.
.	.	.	.	.	.	.	.	.	.	12ff#X	12cccc	.	.	.	.	.	.	.
.	.	.	.	8dL	.	8fL	.	8ddL	.	.	.	.	.	.	.	.	.	.
.	.	.	.	.	.	.	.	.	.	12ggJ	12ddddJ	.	.	.	.	.	.	.
4r	.	4r	.	8AJ	.	8dJ	.	8fJ	.	12gg#XL	12eeeeL	[	4A	.	4f 4dd	.	.	.
.	.	.	.	.	.	.	.	.	.	12aa	12ffff	.	.	.	.	.	.	.
.	.	.	.	8r	.	8r	.	8r	.	.	.	.	.	.	.	.	.	.
.	.	.	.	.	.	.	.	.	.	12bbJ	12ggggJ	.	.	.	.	.	.	.
=76	=76	=76	=76	=76	=76	=76	=76	=76	=76	=76	=76	=76	=76	=76	=76	=76	=76	=76
!LO:TX:t=arco	!	!LO:TX:t=arco	!	!	!	!	!	!	!	!	!	!	!	!	!	!	!	!
[1GG	fp	[1GG	fp	[1F#X [1c	fp	[1c [1a	fp	[1d [1dd	fp	12cccL	12aaaaL	ff	[1F#X [1c	fp	[1d [1a	fp	[1dd	fp
.	.	.	.	.	.	.	.	.	.	12ccc#X	12aaa	.	.	.	.	.	.	.
.	.	.	.	.	.	.	.	.	.	12dddJ	12ddddJ	.	.	.	.	.	.	.
.	.	.	.	.	.	.	.	.	.	12eee-XL	12aaaaL	[	.	.	.	.	.	.
.	.	.	.	.	.	.	.	.	.	12ddd	12aaa	.	.	.	.	.	.	.
.	.	.	.	.	.	.	.	.	.	12ccc#J	12ddddJ	.	.	.	.	.	.	.
.	.	.	.	.	.	.	.	.	.	12cccnL	12ddddL	[	.	.	.	.	.	.
.	.	.	.	.	.	.	.	.	.	12bb	12ddd	.	.	.	.	.	.	.
.	.	.	.	.	.	.	.	.	.	12bb-XJ	12aaaJ	.	.	.	.	.	.	.
.	.	.	.	.	.	.	.	.	.	12aaL	12dddL	.	.	.	.	.	.	.
.	.	.	.	.	.	.	.	.	.	12aa-X	12fff#X	.	.	.	.	.	.	.
.	.	.	.	.	.	.	.	.	.	12ggJ	12gggJ	.	.	.	.	.	.	.
=77	=77	=77	=77	=77	=77	=77	=77	=77	=77	=77	=77	=77	=77	=77	=77	=77	=77	=77
2GG]	.	2GG]	.	2F#] 2c]	.	2c] 2a]	.	2d] 2dd]	.	12ff#XL	12aaaL	.	2F#] 2c]	.	2d] 2a]	.	2dd]	.
.	.	.	.	.	.	.	.	.	.	12gg	12aa	.	.	.	.	.	.	.
.	.	.	.	.	.	.	.	.	.	12gg#XJ	12dddJ	.	.	.	.	.	.	.
.	.	.	.	.	.	.	.	.	.	12aanL	12aaaL	.	.	.	.	.	.	.
.	.	.	.	.	.	.	.	.	.	12gg#X	12aa	.	.	.	.	.	.	.
.	.	.	.	.	.	.	.	.	.	12ggnJ	12dddJ	.	.	.	.	.	.	.
4r	.	4r	.	2r	.	2r	.	2r	.	12ff#L	12dddL	.	4r	.	4r	.	2r	.
.	.	.	.	.	.	.	.	.	.	12ffn	12dd	.	.	.	.	.	.	.
.	.	.	.	.	.	.	.	.	.	12eeJ	12aaJ	.	.	.	.	.	.	.
!LO:TX:t=pizz.	!	!	!	!	!	!	!	!	!	!	!	!	!	!	!	!	!	!
8GL	p	8GGL	p	.	.	.	.	.	.	12ee-XL	12ff#XL	.	8F#XL 8c	pp	8dL 8a	pp	.	.
.	.	.	.	.	.	.	.	.	.	12dd	12gg	.	.	.	.	.	.	.
8DJ	.	8DDJ	.	.	.	.	.	.	.	.	.	.	8F#J 8c	.	8dJ 8a	.	.	.
*	*	*	*	*	*	*	*	*	*	*X8va	*	*	*	*	*	*	*	*
.	.	.	.	.	.	.	.	.	.	12cc#XJ	12aaJ	.	.	.	.	.	.	.
==	==	==	==	==	==	==	==	==	==	==	==	==	==	==	==	==	==	==
*-	*-	*-	*-	*-	*-	*-	*-	*-	*-	*-	*-	*-	*-	*-	*-	*-	*-	*-
!!!CDT: 1891/04/23-1953/03/05
!!!CBL: Sontsovka, Ukraine
!!!CDL: Moscow, Russia
!!!CNT: Russian
!!!AGN: Orchestral; Concerto
!!!MCN: Saradzhev, Konstantin
!!!MDT: 1912/08/07
!!!MGN: unknown
!!!MLC: Moscow, Russia
!!!MPD: 1912
!!!MPN: Prokofiev, Sergei
!!!ODT: 1912
!!!PDT: 1913
!!!excerpt-start-measure: 70
!!!excerpt-end-measure: 77
!!!excerpt-start-time: 1:32
!!!excerpt-end-time: 1:42
!!!EEV: 2020/01/17
!!!system-decoration: [(s1,s2,s3)][({(s4,s5)})][(s6,s7,s8,s9,s10)]
!!!RDF**kern: > = above
!!!ONB: Converted from MusicXML on 2020/01/17
